X: 40620
T: Tonn Teine
R: reel
M: 4/4
K: Gmajor
a|gedB eBdB|AdBG ABce|dB3 dBAG|FGAF GABd|
gfge d2BG|AdBG ABce|dg3 fgag|fdef g3:|
e|d2BG DGBG|AE3 ABcA|BG3 DGBd|egfa gfge|
dB3 eBdB|AGAB c2Bc|dg3 fgag|fdef g3:|

